X:1
T:Y dezid Serranicas he
T:Anonymous
T:Source : Cancionero de Uppsala: Villancicos---Venetia---G.Scotto---1556. Editor : André Vierendeels (06/04/17).
T:Notes : Original clefs  : C1, C3 Editorial accidentals above the staff m 45 in T :  "G" notated as "E" in original print
T:Y dezid Serranicas he
T:©
T:©
T:©
C:Anonymous
Z:©
%%score [ 1 2 ]
L:1/8
Q:1/4=120
M:4/4
K:F
V:1 treble nm="Soprano" snm="S"
V:2 treble-8 nm="Tenor" snm="T"
V:1
 z8 | z8 | D4 E4 | F6 F2 | F4 G4- | G4 F2 E2 | F8 | G8 | z8 | z8 | G8 | A8 | B8 | A4 F4 | G8 | %15
w: ||Y de-|zid Ser-|ra- ni-||cas|he,|||de-|ste|mal|si mo-|ri-|
w: ||Y que|me ha-|zen im-||mor-|tal|||por|do|mo-|rir no|po-|
w: ||Que de|ver la|Ser- ra-||ni-|ca,|||tan|gra-|tio-|sa y|tan|
 F6 E2 | D8 | D4 E4 | F6 F2 | F4 G4- | G4 F2 E2 | F8 | G4 G4 | A8 | B8 | B4 c4- | c4 B4 | A8 | G8 | %29
w: |re,|y de-|zid ser-|ra- ni-||cas|he, de-|ste|mal|si mo-||ri-|re,|
w: |dre,|por do|mo- rir|no po-|||dre, de-|ste|mal|si mo-||ri-|re,|
w: bo- ni-|ca,|mi do-|lor me|cer- ti-||fi-|ca, que|ja-|mas|non sa-||na-|re,|
 z8 | G8 | A8 | B8 | B4 c4 | B4 G4 | A8 | G8 || z8 | G8 | A4 A4 | B8 | G4 c4- | c4 B4 | A8 | G8 |] %45
w: |de-|ste|mal|si mo-|ri- *||re.||Por|quel Re-|me-|di- o|* y|mi|mal.|
w: |||||||||Na-|scen- de|u-|na cau-||sa|tal.|
w: ||||||||||||||||
V:2
 G4 A4 | B6 B2 | B4 c4- | c4 B2 A2 | B8 | c8 | z4 d4 | e8 | f8 | f4 g4- | g4 f2 e2 | f8 | g8 | z8 | %14
w: Y de-|zid Ser-|ra- ni||cas|he,|de-|ste|mal|si mo-||ri-|re,||
w: Y que|me ha-|zen im-||mor-|tal,|por|do|mo-|rir no\_po-||dre,|no||
w: Que de|ver la|Ser- ra-||ni-|ca,|tan|gra-|ti-|o- *|||sa||
 z4 G4 | A4 B4- | B4 G4- | G4 G4 | d8 | d4 B4 | c8 | A8 | G4 g4- | g4 f4 | d4 g4- | g4 f4 | %26
w: y|de- zid|* ser-|* ra-|ni-|||cas|he, de-|* ste|mal si|* mo-|
w: po-|dre por|* mo-|* rir|no|po- dre,|||de- ste|* mal|si mo-|* ri-|
w: y|tan bo-|* ni-|* ca,|mi|do- *|lor|cer-|ti- ci-|* ca|que ja-|* mas|
 d4 g4- | g4 f4 | g4 G4 | A4 B4- | B4 c4- | c4 d4- | d4 _e4- | e2 d2 c2 d2 |"^b" e2 f2 g4 | %35
w: ri- *||re, de-|ste mal|* si|* mo-|* ri-|||
w: re, *||Na- *|||||||
w: non sa-|* ne-|re, *|||||||
"^#" g4 f4 | g8 || d8 | e4 e4 | f8 | d4 g4- | g2 f2 e2 d2 | e2 d2 g4- |"^#" g4 f4 | g8 |] %45
w: |re.|Por|quel Re-|me-|dio y|* mi- * *|||mal.|
w: ||scen-|de u-|na|cau- sa|||* tal.||
w: ||||||||||

